lib/assets/svg/button/zhHK_add_to_google_wallet_add-wallet-badge.svg

<svg fill="none" height="55" viewBox="0 0 185 55" width="185" xmlns="http://www.w3.org/2000/svg" xmlns:xlink="http://www.w3.org/1999/xlink"><linearGradient id="a" gradientUnits="userSpaceOnUse" x1="37.2843" x2="18.7823" y1="34.0448" y2="55.7227"><stop offset="0" stop-color="#4285f4"/><stop offset="1" stop-color="#1b74e8"/></linearGradient><rect fill="#1f1f1f" height="54" rx="27" width="184" x=".5" y=".5"/><path d="m57 23.791h-36v-5.6454c0-3.0647 2.6422-5.6455 5.7798-5.6455h24.4404c3.1376 0 5.7798 2.5808 5.7798 5.6455z" fill="#34a853"/><path d="m57 29h-36v-6c0-3.2571 2.6422-6 5.7798-6h24.4404c3.1376 0 5.7798 2.7429 5.7798 6z" fill="#fbbc04"/><path d="m57 34h-36v-6c0-3.2571 2.6422-6 5.7798-6h24.4404c3.1376 0 5.7798 2.7429 5.7798 6z" fill="#ea4335"/><path d="m21 25.2409 22.8493 5.1616c2.6302.6452 5.5891 0 7.726-1.613l5.4247-3.8712v12.0974c0 3.0647-2.6301 5.4842-5.7534 5.4842h-24.4932c-3.1233 0-5.7534-2.4195-5.7534-5.4842z" fill="url(#a)"/><path d="m76.631 14.974v.91h4.836v-.91zm-6.838-3.029v.832h5.733v-.832zm-.143 5.161v.845h5.941v-.845zm-.039-2.184v.832h6.071v-.832zm9.438.416v7.137h.949v-7.137zm-6.851-4.706v1.742h.949v-1.742zm0 4.966v6.929h.949v-6.929zm3.965-3.952v4.55c0 1.846-.182 4.095-1.846 5.733.234.13.585.455.702.676 1.833-1.807 2.067-4.446 2.067-6.396v-4.017c.182-.026.26-.078.273-.182zm4.355-.91c-.949.468-2.665.923-4.121 1.235.117.195.247.533.299.741 1.56-.273 3.38-.715 4.602-1.261zm-7.462 7.462-.533.442c.481.403 1.703 1.547 2.119 2.028l.572-.728c-.325-.299-1.742-1.456-2.158-1.742zm-2.483-5.187c.26.598.468 1.378.507 1.885l.819-.221c-.065-.494-.286-1.261-.559-1.833zm3.328-.195c-.143.546-.416 1.352-.65 1.872l.78.182c.234-.481.507-1.209.754-1.859zm-1.69 4.719c-.624 1.274-1.807 2.678-2.86 3.367.221.156.507.468.663.689 1.04-.806 2.236-2.34 2.899-3.783zm10.348-3.77v.923h3.484v-.923zm1.391-2.99v8.502h.949v-8.502zm-1.586 8.723.338.975c1.105-.468 2.509-1.092 3.835-1.69l-.234-.884c-1.443.611-2.951 1.235-3.939 1.599zm5.057-1.69v4.745h.936v-4.004h3.861v3.965h.962v-4.706zm.494 3.484v.767h4.914v-.767zm-.026-1.729v.702h4.875v-.702zm1.976-5.824v2.938h.741v-2.938zm-2.275.39h5.356v2.197h-5.356zm-.793-.754v3.692h6.994v-3.692zm1.274 1.209c.234.481.468 1.118.546 1.508l.624-.208c-.078-.377-.312-1.001-.559-1.469zm3.614-.182c-.117.429-.377 1.066-.585 1.495l.533.195c.234-.377.494-.936.741-1.469zm-2.496-3.471v.845h2.639v-.845zm-1.105.351c-.507 1.014-1.391 1.989-2.288 2.652.208.156.533.507.663.676.923-.741 1.898-1.898 2.496-3.068zm2.951-.351v.494h.26c.663 1.157 1.768 2.327 2.782 3.055.156-.247.442-.585.65-.754-.975-.598-2.093-1.703-2.717-2.795zm4.953.468v.91h11.128v-.91zm.858 6.344v.91h9.386v-.91zm-1.144 3.354v.91h11.622v-.91zm5.239-4.966v5.603h1.014v-5.603zm-4.719-1.222.039.988c2.301-.078 5.915-.234 9.308-.39l.052-.884c-3.497.13-7.15.247-9.399.286zm3.549-3.094c-.39 1.027-1.131 2.457-1.716 3.354l.897.325c.598-.845 1.352-2.184 1.937-3.328zm2.912 1.417c1.313.962 2.873 2.34 3.601 3.263l.871-.624c-.767-.936-2.392-2.275-3.679-3.172z" fill="#fff"/><path d="m76.14 41.772c-.8727 0-1.6943-.1587-2.465-.476-.7593-.3173-1.4337-.7593-2.023-1.326-.5893-.578-1.054-1.2523-1.394-2.023-.3287-.782-.493-1.6263-.493-2.533s.1643-1.7453.493-2.516c.34-.782.799-1.4563 1.377-2.023.5893-.578 1.2693-1.0257 2.04-1.343s1.5923-.476 2.465-.476c.9293 0 1.785.1643 2.567.493.7933.3287 1.4563.7877 1.989 1.377l-1.292 1.275c-.3967-.442-.8727-.782-1.428-1.02-.544-.238-1.156-.357-1.836-.357-.8047 0-1.547.1927-2.227.578-.68.374-1.2297.9067-1.649 1.598-.408.68-.612 1.4847-.612 2.414s.2097 1.7397.629 2.431c.4193.68.969 1.2127 1.649 1.598.68.374 1.4223.561 2.227.561.7367 0 1.4053-.136 2.006-.408.6007-.2833 1.0823-.68 1.445-1.19.374-.51.6007-1.122.68-1.836h-4.165v-1.649h5.916c.068.306.102.629.102.969v.017c0 1.1787-.2607 2.21-.782 3.094-.51.8727-1.2183 1.5527-2.125 2.04s-1.938.731-3.094.731zm11.4749 0c-.8954 0-1.683-.204-2.363-.612s-1.2127-.9577-1.598-1.649c-.3854-.6913-.578-1.4733-.578-2.346 0-.8613.1926-1.6377.578-2.329.3853-.7027.918-1.258 1.598-1.666s1.4676-.612 2.363-.612c.884 0 1.666.204 2.346.612s1.2126.9633 1.598 1.666c.3853.6913.578 1.4677.578 2.329 0 .8727-.1927 1.6547-.578 2.346-.3854.6913-.918 1.241-1.598 1.649s-1.462.612-2.346.612zm0-1.683c.476 0 .918-.1133 1.326-.34.408-.238.7366-.5723.986-1.003.2606-.442.391-.969.391-1.581s-.1304-1.1333-.391-1.564c-.2494-.442-.578-.7763-.986-1.003-.408-.238-.85-.357-1.326-.357s-.9237.119-1.343.357c-.408.2267-.7424.561-1.003 1.003-.2494.4307-.374.952-.374 1.564s.1246 1.139.374 1.581c.2606.4307.595.765 1.003 1.003.4193.2267.867.34 1.343.34zm10.2929 1.683c-.8953 0-1.683-.204-2.363-.612s-1.2126-.9577-1.598-1.649c-.3853-.6913-.578-1.4733-.578-2.346 0-.8613.1927-1.6377.578-2.329.3854-.7027.918-1.258 1.598-1.666s1.4677-.612 2.363-.612c.884 0 1.666.204 2.3462.612.68.408 1.213.9633 1.598 1.666.385.6913.578 1.4677.578 2.329 0 .8727-.193 1.6547-.578 2.346s-.918 1.241-1.598 1.649c-.6802.408-1.4622.612-2.3462.612zm0-1.683c.476 0 .918-.1133 1.326-.34.408-.238.7367-.5723.9862-1.003.261-.442.391-.969.391-1.581s-.13-1.1333-.391-1.564c-.2495-.442-.5782-.7763-.9862-1.003-.408-.238-.85-.357-1.326-.357s-.9236.119-1.343.357c-.408.2267-.7423.561-1.003 1.003-.2493.4307-.374.952-.374 1.564s.1247 1.139.374 1.581c.2607.4307.595.765 1.003 1.003.4194.2267.867.34 1.343.34zm10.1232 5.355c-.76 0-1.417-.1247-1.972-.374-.544-.238-.986-.5497-1.326-.935-.34-.374-.584-.7593-.731-1.156l1.7-.714c.181.4533.47.8217.867 1.105.408.2947.895.442 1.462.442.793 0 1.416-.238 1.87-.714.464-.476.697-1.1503.697-2.023v-.833h-.102c-.272.408-.652.7367-1.139.986-.476.238-1.02.357-1.632.357-.737 0-1.411-.187-2.023-.561s-1.105-.8953-1.479-1.564c-.374-.68-.561-1.4733-.561-2.38 0-.918.187-1.7113.561-2.38.374-.68.867-1.207 1.479-1.581s1.286-.561 2.023-.561c.612 0 1.156.1247 1.632.374.487.2493.867.578 1.139.986h.102v-1.088h1.751v8.211c0 .9407-.187 1.7397-.561 2.397-.363.6573-.867 1.156-1.513 1.496s-1.394.51-2.244.51zm.017-5.525c.453 0 .872-.1077 1.258-.323.385-.2267.697-.5497.935-.969.238-.4307.357-.9463.357-1.547 0-.6233-.119-1.1447-.357-1.564-.238-.4307-.55-.7537-.935-.969-.386-.2153-.805-.323-1.258-.323-.454 0-.879.1133-1.275.34-.386.2153-.697.5327-.935.952s-.357.9407-.357 1.564c0 .612.119 1.1333.357 1.564.238.4193.549.7367.935.952.396.2153.821.323 1.275.323zm6.466 1.581v-12.172h1.836v12.172zm7.878.272c-.85 0-1.609-.1983-2.278-.595-.668-.3967-1.195-.9407-1.581-1.632-.374-.6913-.561-1.479-.561-2.363 0-.8273.182-1.5923.544-2.295.363-.7027.867-1.2637 1.513-1.683.658-.4307 1.411-.646 2.261-.646.896 0 1.655.1927 2.278.578.635.3853 1.117.9123 1.445 1.581.329.6687.493 1.4223.493 2.261 0 .1247-.005.238-.017.34 0 .102-.005.1813-.017.238h-6.698c.091.8613.391 1.5073.901 1.938.522.4307 1.111.646 1.768.646.59 0 1.077-.1303 1.462-.391.386-.272.692-.6063.918-1.003l1.513.731c-.374.68-.884 1.2353-1.53 1.666-.646.4193-1.45.629-2.414.629zm-.085-7.65c-.612 0-1.133.187-1.564.561-.43.374-.719.8727-.867 1.496h4.811c-.022-.2947-.119-.6007-.289-.918s-.43-.5837-.782-.799c-.34-.2267-.776-.34-1.309-.34zm16.347-4.471.119 1.037 8.347-.816-.102-1.037zm-.204 7.565.085 1.054 8.823-.85-.119-1.037zm1.989-9.996c.34 4.267 3.009 7.65 5.372 7.65.952 0 1.377-.442 1.581-2.057-.306-.102-.663-.289-.918-.51-.068 1.071-.187 1.445-.595 1.445-1.632.017-3.995-2.856-4.284-6.528zm.068 7.548c.289 4.539 2.686 8.092 5.321 8.092 1.02 0 1.445-.459 1.649-2.176-.306-.102-.68-.306-.935-.544-.085 1.173-.204 1.581-.646 1.581-1.836.034-3.978-2.992-4.216-6.953zm4.437-4.386c-1.326 1.598-4.029 2.72-6.63 3.332.238.221.612.714.765.952 2.601-.765 5.44-2.023 6.936-3.876zm.255 7.531c-1.428 1.904-4.42 3.145-7.412 3.808.238.238.612.782.748 1.037 3.009-.833 6.154-2.244 7.803-4.437zm-2.091-9.979c.765.289 1.734.748 2.21 1.139l.595-.765c-.493-.357-1.462-.799-2.21-1.037zm-.255 7.276c.782.323 1.734.867 2.21 1.275l.714-.731c-.493-.408-1.462-.901-2.244-1.207zm-9.911-3.774v1.105h4.777v-1.105zm-.918 2.907v1.122h6.222v-1.122zm.391 2.244c.323 1.037.595 2.363.612 3.247l.952-.238c-.068-.884-.34-2.193-.68-3.23zm-.544 4.573.255 1.19c1.768-.374 4.114-.884 6.358-1.377l-.085-1.071c-2.397.493-4.879.986-6.528 1.258zm5.27-4.947c-.153.901-.459 2.244-.714 3.077l.833.238c.289-.799.578-2.023.867-3.06zm-2.448-4.369v9.452l1.122-.187v-9.265zm-.051-4.607c-.578 1.36-1.666 3.094-3.213 4.386.238.17.612.544.799.799 1.683-1.479 2.788-3.281 3.451-4.59v-.323h-.374v-.272zm.204 0v.901h.238c.986.85 2.142 2.261 2.72 3.128l.85-.969c-.595-.85-1.853-2.159-2.856-3.06zm18.054-.102c-.952 2.431-2.516 4.794-4.284 6.273.34.204.884.663 1.139.901 1.734-1.632 3.4-4.148 4.471-6.8zm-.204 2.04-.612 1.207h10.2v-1.207zm9.18 0v.255c-.153 5.559-.323 7.514-.714 7.956-.136.187-.323.238-.595.238-.323 0-1.139-.017-2.006-.102.204.34.34.85.357 1.224.918.034 1.768.051 2.244 0 .51-.051.85-.187 1.156-.578.493-.629.663-2.652.833-8.381 0-.187 0-.612 0-.612zm-10.081 7.072v1.139h6.562v-5.185h-6.919v1.139h5.644v2.907zm-.612 0v4.369c0 1.683.799 2.057 3.519 2.057h6.358c2.414 0 2.907-.595 3.162-3.043-.357-.068-.901-.272-1.224-.459-.153 1.955-.408 2.295-1.955 2.295-1.139 0-5.542 0-6.409 0-1.836 0-2.176-.153-2.176-.85v-4.369z" fill="#fff"/><rect height="54" rx="27" stroke="#747775" width="184" x=".5" y=".5"/></svg>

<svg width="185" height="55" viewBox="0 0 185 55" fill="none" xmlns="http://www.w3.org/2000/svg">
<rect x="0.5" y="0.5" width="184" height="54" rx="27" fill="#1F1F1F"/>
<path d="M57 23.791H21V18.1456C21 15.0809 23.6422 12.5001 26.7798 12.5001H51.2202C54.3578 12.5001 57 15.0809 57 18.1456V23.791Z" fill="#34A853"/>
<path d="M57 29H21V23C21 19.7429 23.6422 17 26.7798 17H51.2202C54.3578 17 57 19.7429 57 23V29Z" fill="#FBBC04"/>
<path d="M57 34H21V28C21 24.7429 23.6422 22 26.7798 22H51.2202C54.3578 22 57 24.7429 57 28V34Z" fill="#EA4335"/>
<path d="M21 25.2409L43.8493 30.4025C46.4795 31.0477 49.4384 30.4025 51.5753 28.7895L57 24.9183V37.0157C57 40.0804 54.3699 42.4999 51.2466 42.4999H26.7534C23.6301 42.4999 21 40.0804 21 37.0157V25.2409Z" fill="url(#paint0_linear_1819_23997)"/>
<path d="M76.631 14.974V15.884H81.467V14.974H76.631ZM69.793 11.945V12.777H75.526V11.945H69.793ZM69.65 17.106V17.951H75.591V17.106H69.65ZM69.611 14.922V15.754H75.682V14.922H69.611ZM79.049 15.338V22.475H79.998V15.338H79.049ZM72.198 10.632V12.374H73.147V10.632H72.198ZM72.198 15.598V22.527H73.147V15.598H72.198ZM76.163 11.646V16.196C76.163 18.042 75.981 20.291 74.317 21.929C74.551 22.059 74.902 22.384 75.019 22.605C76.852 20.798 77.086 18.159 77.086 16.209V12.192C77.268 12.166 77.346 12.114 77.359 12.01L76.163 11.646ZM80.518 10.736C79.569 11.204 77.853 11.659 76.397 11.971C76.514 12.166 76.644 12.504 76.696 12.712C78.256 12.439 80.076 11.997 81.298 11.451L80.518 10.736ZM73.056 18.198L72.523 18.64C73.004 19.043 74.226 20.187 74.642 20.668L75.214 19.94C74.889 19.641 73.472 18.484 73.056 18.198ZM70.573 13.011C70.833 13.609 71.041 14.389 71.08 14.896L71.899 14.675C71.834 14.181 71.613 13.414 71.34 12.842L70.573 13.011ZM73.901 12.816C73.758 13.362 73.485 14.168 73.251 14.688L74.031 14.87C74.265 14.389 74.538 13.661 74.785 13.011L73.901 12.816ZM72.211 17.535C71.587 18.809 70.404 20.213 69.351 20.902C69.572 21.058 69.858 21.37 70.014 21.591C71.054 20.785 72.25 19.251 72.913 17.808L72.211 17.535ZM82.559 13.765V14.688H86.043V13.765H82.559ZM83.95 10.775V19.277H84.899V10.775H83.95ZM82.364 19.498L82.702 20.473C83.807 20.005 85.211 19.381 86.537 18.783L86.303 17.899C84.86 18.51 83.352 19.134 82.364 19.498ZM87.421 17.808V22.553H88.357V18.549H92.218V22.514H93.18V17.808H87.421ZM87.915 21.292V22.059H92.829V21.292H87.915ZM87.889 19.563V20.265H92.764V19.563H87.889ZM89.865 13.739V16.677H90.606V13.739H89.865ZM87.59 14.129H92.946V16.326H87.59V14.129ZM86.797 13.375V17.067H93.791V13.375H86.797ZM88.071 14.584C88.305 15.065 88.539 15.702 88.617 16.092L89.241 15.884C89.163 15.507 88.929 14.883 88.682 14.415L88.071 14.584ZM91.685 14.402C91.568 14.831 91.308 15.468 91.1 15.897L91.633 16.092C91.867 15.715 92.127 15.156 92.374 14.623L91.685 14.402ZM89.189 10.931V11.776H91.828V10.931H89.189ZM88.084 11.282C87.577 12.296 86.693 13.271 85.796 13.934C86.004 14.09 86.329 14.441 86.459 14.61C87.382 13.869 88.357 12.712 88.955 11.542L88.084 11.282ZM91.035 10.931V11.425H91.295C91.958 12.582 93.063 13.752 94.077 14.48C94.233 14.233 94.519 13.895 94.727 13.726C93.752 13.128 92.634 12.023 92.01 10.931H91.035ZM95.988 11.399V12.309H107.116V11.399H95.988ZM96.846 17.743V18.653H106.232V17.743H96.846ZM95.702 21.097V22.007H107.324V21.097H95.702ZM100.941 16.131V21.734H101.955V16.131H100.941ZM96.222 14.909L96.261 15.897C98.562 15.819 102.176 15.663 105.569 15.507L105.621 14.623C102.124 14.753 98.471 14.87 96.222 14.909ZM99.771 11.815C99.381 12.842 98.64 14.272 98.055 15.169L98.952 15.494C99.55 14.649 100.304 13.31 100.889 12.166L99.771 11.815ZM102.683 13.232C103.996 14.194 105.556 15.572 106.284 16.495L107.155 15.871C106.388 14.935 104.763 13.596 103.476 12.699L102.683 13.232Z" fill="white"/>
<path d="M76.14 41.772C75.2673 41.772 74.4457 41.6133 73.675 41.296C72.9157 40.9787 72.2413 40.5367 71.652 39.97C71.0627 39.392 70.598 38.7177 70.258 37.947C69.9293 37.165 69.765 36.3207 69.765 35.414C69.765 34.5073 69.9293 33.6687 70.258 32.898C70.598 32.116 71.057 31.4417 71.635 30.875C72.2243 30.297 72.9043 29.8493 73.675 29.532C74.4457 29.2147 75.2673 29.056 76.14 29.056C77.0693 29.056 77.925 29.2203 78.707 29.549C79.5003 29.8777 80.1633 30.3367 80.696 30.926L79.404 32.201C79.0073 31.759 78.5313 31.419 77.976 31.181C77.432 30.943 76.82 30.824 76.14 30.824C75.3353 30.824 74.593 31.0167 73.913 31.402C73.233 31.776 72.6833 32.3087 72.264 33C71.856 33.68 71.652 34.4847 71.652 35.414C71.652 36.3433 71.8617 37.1537 72.281 37.845C72.7003 38.525 73.25 39.0577 73.93 39.443C74.61 39.817 75.3523 40.004 76.157 40.004C76.8937 40.004 77.5623 39.868 78.163 39.596C78.7637 39.3127 79.2453 38.916 79.608 38.406C79.982 37.896 80.2087 37.284 80.288 36.57H76.123V34.921H82.039C82.107 35.227 82.141 35.55 82.141 35.89V35.907C82.141 37.0857 81.8803 38.117 81.359 39.001C80.849 39.8737 80.1407 40.5537 79.234 41.041C78.3273 41.5283 77.296 41.772 76.14 41.772ZM87.6149 41.772C86.7195 41.772 85.9319 41.568 85.2519 41.16C84.5719 40.752 84.0392 40.2023 83.6539 39.511C83.2685 38.8197 83.0759 38.0377 83.0759 37.165C83.0759 36.3037 83.2685 35.5273 83.6539 34.836C84.0392 34.1333 84.5719 33.578 85.2519 33.17C85.9319 32.762 86.7195 32.558 87.6149 32.558C88.4989 32.558 89.2809 32.762 89.9609 33.17C90.6409 33.578 91.1735 34.1333 91.5589 34.836C91.9442 35.5273 92.1369 36.3037 92.1369 37.165C92.1369 38.0377 91.9442 38.8197 91.5589 39.511C91.1735 40.2023 90.6409 40.752 89.9609 41.16C89.2809 41.568 88.4989 41.772 87.6149 41.772ZM87.6149 40.089C88.0909 40.089 88.5329 39.9757 88.9409 39.749C89.3489 39.511 89.6775 39.1767 89.9269 38.746C90.1875 38.304 90.3179 37.777 90.3179 37.165C90.3179 36.553 90.1875 36.0317 89.9269 35.601C89.6775 35.159 89.3489 34.8247 88.9409 34.598C88.5329 34.36 88.0909 34.241 87.6149 34.241C87.1389 34.241 86.6912 34.36 86.2719 34.598C85.8639 34.8247 85.5295 35.159 85.2689 35.601C85.0195 36.0317 84.8949 36.553 84.8949 37.165C84.8949 37.777 85.0195 38.304 85.2689 38.746C85.5295 39.1767 85.8639 39.511 86.2719 39.749C86.6912 39.9757 87.1389 40.089 87.6149 40.089ZM97.9078 41.772C97.0125 41.772 96.2248 41.568 95.5448 41.16C94.8648 40.752 94.3322 40.2023 93.9468 39.511C93.5615 38.8197 93.3688 38.0377 93.3688 37.165C93.3688 36.3037 93.5615 35.5273 93.9468 34.836C94.3322 34.1333 94.8648 33.578 95.5448 33.17C96.2248 32.762 97.0125 32.558 97.9078 32.558C98.7918 32.558 99.5738 32.762 100.254 33.17C100.934 33.578 101.467 34.1333 101.852 34.836C102.237 35.5273 102.43 36.3037 102.43 37.165C102.43 38.0377 102.237 38.8197 101.852 39.511C101.467 40.2023 100.934 40.752 100.254 41.16C99.5738 41.568 98.7918 41.772 97.9078 41.772ZM97.9078 40.089C98.3838 40.089 98.8258 39.9757 99.2338 39.749C99.6418 39.511 99.9705 39.1767 100.22 38.746C100.481 38.304 100.611 37.777 100.611 37.165C100.611 36.553 100.481 36.0317 100.22 35.601C99.9705 35.159 99.6418 34.8247 99.2338 34.598C98.8258 34.36 98.3838 34.241 97.9078 34.241C97.4318 34.241 96.9842 34.36 96.5648 34.598C96.1568 34.8247 95.8225 35.159 95.5618 35.601C95.3125 36.0317 95.1878 36.553 95.1878 37.165C95.1878 37.777 95.3125 38.304 95.5618 38.746C95.8225 39.1767 96.1568 39.511 96.5648 39.749C96.9842 39.9757 97.4318 40.089 97.9078 40.089ZM108.031 45.444C107.271 45.444 106.614 45.3193 106.059 45.07C105.515 44.832 105.073 44.5203 104.733 44.135C104.393 43.761 104.149 43.3757 104.002 42.979L105.702 42.265C105.883 42.7183 106.172 43.0867 106.569 43.37C106.977 43.6647 107.464 43.812 108.031 43.812C108.824 43.812 109.447 43.574 109.901 43.098C110.365 42.622 110.598 41.9477 110.598 41.075V40.242H110.496C110.224 40.65 109.844 40.9787 109.357 41.228C108.881 41.466 108.337 41.585 107.725 41.585C106.988 41.585 106.314 41.398 105.702 41.024C105.09 40.65 104.597 40.1287 104.223 39.46C103.849 38.78 103.662 37.9867 103.662 37.08C103.662 36.162 103.849 35.3687 104.223 34.7C104.597 34.02 105.09 33.493 105.702 33.119C106.314 32.745 106.988 32.558 107.725 32.558C108.337 32.558 108.881 32.6827 109.357 32.932C109.844 33.1813 110.224 33.51 110.496 33.918H110.598V32.83H112.349V41.041C112.349 41.9817 112.162 42.7807 111.788 43.438C111.425 44.0953 110.921 44.594 110.275 44.934C109.629 45.274 108.881 45.444 108.031 45.444ZM108.048 39.919C108.501 39.919 108.92 39.8113 109.306 39.596C109.691 39.3693 110.003 39.0463 110.241 38.627C110.479 38.1963 110.598 37.6807 110.598 37.08C110.598 36.4567 110.479 35.9353 110.241 35.516C110.003 35.0853 109.691 34.7623 109.306 34.547C108.92 34.3317 108.501 34.224 108.048 34.224C107.594 34.224 107.169 34.3373 106.773 34.564C106.387 34.7793 106.076 35.0967 105.838 35.516C105.6 35.9353 105.481 36.4567 105.481 37.08C105.481 37.692 105.6 38.2133 105.838 38.644C106.076 39.0633 106.387 39.3807 106.773 39.596C107.169 39.8113 107.594 39.919 108.048 39.919ZM114.514 41.5V29.328H116.35V41.5H114.514ZM122.392 41.772C121.542 41.772 120.783 41.5737 120.114 41.177C119.446 40.7803 118.919 40.2363 118.533 39.545C118.159 38.8537 117.972 38.066 117.972 37.182C117.972 36.3547 118.154 35.5897 118.516 34.887C118.879 34.1843 119.383 33.6233 120.029 33.204C120.687 32.7733 121.44 32.558 122.29 32.558C123.186 32.558 123.945 32.7507 124.568 33.136C125.203 33.5213 125.685 34.0483 126.013 34.717C126.342 35.3857 126.506 36.1393 126.506 36.978C126.506 37.1027 126.501 37.216 126.489 37.318C126.489 37.42 126.484 37.4993 126.472 37.556H119.774C119.865 38.4173 120.165 39.0633 120.675 39.494C121.197 39.9247 121.786 40.14 122.443 40.14C123.033 40.14 123.52 40.0097 123.905 39.749C124.291 39.477 124.597 39.1427 124.823 38.746L126.336 39.477C125.962 40.157 125.452 40.7123 124.806 41.143C124.16 41.5623 123.356 41.772 122.392 41.772ZM122.307 34.122C121.695 34.122 121.174 34.309 120.743 34.683C120.313 35.057 120.024 35.5557 119.876 36.179H124.687C124.665 35.8843 124.568 35.5783 124.398 35.261C124.228 34.9437 123.968 34.6773 123.616 34.462C123.276 34.2353 122.84 34.122 122.307 34.122ZM138.654 29.651L138.773 30.688L147.12 29.872L147.018 28.835L138.654 29.651ZM138.45 37.216L138.535 38.27L147.358 37.42L147.239 36.383L138.45 37.216ZM140.439 27.22C140.779 31.487 143.448 34.87 145.811 34.87C146.763 34.87 147.188 34.428 147.392 32.813C147.086 32.711 146.729 32.524 146.474 32.303C146.406 33.374 146.287 33.748 145.879 33.748C144.247 33.765 141.884 30.892 141.595 27.22H140.439ZM140.507 34.768C140.796 39.307 143.193 42.86 145.828 42.86C146.848 42.86 147.273 42.401 147.477 40.684C147.171 40.582 146.797 40.378 146.542 40.14C146.457 41.313 146.338 41.721 145.896 41.721C144.06 41.755 141.918 38.729 141.68 34.768H140.507ZM144.944 30.382C143.618 31.98 140.915 33.102 138.314 33.714C138.552 33.935 138.926 34.428 139.079 34.666C141.68 33.901 144.519 32.643 146.015 30.79L144.944 30.382ZM145.199 37.913C143.771 39.817 140.779 41.058 137.787 41.721C138.025 41.959 138.399 42.503 138.535 42.758C141.544 41.925 144.689 40.514 146.338 38.321L145.199 37.913ZM143.108 27.934C143.873 28.223 144.842 28.682 145.318 29.073L145.913 28.308C145.42 27.951 144.451 27.509 143.703 27.271L143.108 27.934ZM142.853 35.21C143.635 35.533 144.587 36.077 145.063 36.485L145.777 35.754C145.284 35.346 144.315 34.853 143.533 34.547L142.853 35.21ZM132.942 31.436V32.541H137.719V31.436H132.942ZM132.024 34.343V35.465H138.246V34.343H132.024ZM132.415 36.587C132.738 37.624 133.01 38.95 133.027 39.834L133.979 39.596C133.911 38.712 133.639 37.403 133.299 36.366L132.415 36.587ZM131.871 41.16L132.126 42.35C133.894 41.976 136.24 41.466 138.484 40.973L138.399 39.902C136.002 40.395 133.52 40.888 131.871 41.16ZM137.141 36.213C136.988 37.114 136.682 38.457 136.427 39.29L137.26 39.528C137.549 38.729 137.838 37.505 138.127 36.468L137.141 36.213ZM134.693 31.844V41.296L135.815 41.109V31.844H134.693ZM134.642 27.237C134.064 28.597 132.976 30.331 131.429 31.623C131.667 31.793 132.041 32.167 132.228 32.422C133.911 30.943 135.016 29.141 135.679 27.832V27.509H135.305V27.237H134.642ZM134.846 27.237V28.138H135.084C136.07 28.988 137.226 30.399 137.804 31.266L138.654 30.297C138.059 29.447 136.801 28.138 135.798 27.237H134.846ZM152.9 27.135C151.948 29.566 150.384 31.929 148.616 33.408C148.956 33.612 149.5 34.071 149.755 34.309C151.489 32.677 153.155 30.161 154.226 27.509L152.9 27.135ZM152.696 29.175L152.084 30.382H162.284V29.175H152.696ZM161.876 29.175V29.43C161.723 34.989 161.553 36.944 161.162 37.386C161.026 37.573 160.839 37.624 160.567 37.624C160.244 37.624 159.428 37.607 158.561 37.522C158.765 37.862 158.901 38.372 158.918 38.746C159.836 38.78 160.686 38.797 161.162 38.746C161.672 38.695 162.012 38.559 162.318 38.168C162.811 37.539 162.981 35.516 163.151 29.787C163.151 29.6 163.151 29.175 163.151 29.175H161.876ZM151.795 36.247V37.386H158.357V32.201H151.438V33.34H157.082V36.247H151.795ZM151.183 36.247V40.616C151.183 42.299 151.982 42.673 154.702 42.673C155.297 42.673 160.431 42.673 161.06 42.673C163.474 42.673 163.967 42.078 164.222 39.63C163.865 39.562 163.321 39.358 162.998 39.171C162.845 41.126 162.59 41.466 161.043 41.466C159.904 41.466 155.501 41.466 154.634 41.466C152.798 41.466 152.458 41.313 152.458 40.616V36.247H151.183Z" fill="white"/>
<rect x="0.5" y="0.5" width="184" height="54" rx="27" stroke="#747775"/>
<defs>
<linearGradient id="paint0_linear_1819_23997" x1="37.2843" y1="34.0448" x2="18.7823" y2="55.7227" gradientUnits="userSpaceOnUse">
<stop stop-color="#4285F4"/>
<stop offset="1" stop-color="#1B74E8"/>
</linearGradient>
</defs>
</svg>
